X:1
T:Game of thrones
T:Lile Shamugia
T:si
T:si
Z:si
%%score 1 { 2 | 3 }
L:1/8
M:3/4
K:G
V:1 treble-8 nm="Guitar" snm="Guit."
V:2 treble nm="Piano" snm="Pno."
V:3 bass 
V:1
 B6 | E6 | GA B4 | E4 GA | (F6 | (F6) | F6) | z6 | A6 | D6 | GF A4 | D6 | GF (E4 | E6) | E6 | z6 :| %16
 B6 | E6 | GA B4 | E4 GA | (F6 | (F6) | F6) | z6 | A6 | D6 | GF A4 | D6 | GF (E4 | (E6) | E6) | %31
 z6 |: (E6 | E6) | (D6 | D6) | (E6 | E6) | (B6 | B6) | (C6 | C6) |1 G6 | A6 | B6 | B6 | B6 || %47
 z6 :|2 G6 | F6 | E6 | E6 | E6 | E6 | z6 |] z6 | z6 | z6 | z6 | z6 |] %60
V:2
 z6 | z6 | z6 | z6 | z6 | z6 | z6 | z6 | z6 | z6 | z6 | z6 | z6 | z6 | z6 | z6 :| B2 EG A2 | %17
 B2 EG A2 | B2 EG A2 | B2 EG A2 | A2 DF G2 | A2 DF G2 | A2 DF G2 | A2 DF G2 | A2 DF G2 | A2 DF G2 | %26
 A2 DF G2 | A2 DF G2 | B2 EG A2 | B2 EG A2 | B2 EG A2 | z6 |: E2 C2 G,2 | E2 C2 G,2 | D2 B,2 G,2 | %35
 D2 B,2 G,2 | C2 A,2 E,2 | C2 A,2 E,2 | E,2 G,2 B,2 | E,2 G,2 B,2 | C,2 E,2 G,2 | C,2 E,2 G,2 |1 %42
 C,2 E,2 G,2 | D,2 G,2 A,2 | E,2 G,2 B,2 | E,2 G,2 B,2 | E,2 G,2 B,2 || z6 :|2 G,2 B,2 G2 | %49
 G,2 B,2 F2 | E2 B,2 G,2 | E2 B,2 G,2 | E2 B,2 G,2 | E2 B,2 G,2 | E,6 |] z6 | z6 | z6 | z6 | z6 |] %60
V:3
 E,6 | E,6 | E,6 | E,6 | D,6 | D,6 | D,6 | z6 | D,6 | D,6 | D,6 | D,6 | E,6 | E,6 | E,6 | z6 :| %16
 E,6 | E,6 | E,6 | E,6 | D,6 | D,6 | D,6 | z6 | D,6 | D,6 | D,6 | D,6 | E,6 | E,6 | E,6 | z6 |: %32
 C,6 | C,6 | B,,6 | B,,6 | A,,6 | A,,6 | G,,6 | G,,6 | E,,6 | E,,6 |1 A,,6 | B,,6 | E,6 | E,6 | %46
 E,6 || z6 :|2 B,,6 | C,2 D,4 | E,6 | E,6 | E,6 | E,6 | z6 |] z6 | z6 | z6 | z6 | z6 |] %60

